X: 38976
T: Swallow's Nest, The
R: reel
M: 4/4
K: Gmajor
(3DEF|GFGA GEDE|~G2dG BedB|AE~E2 ~A2Bd|egfa gedB|
GFGA GEDE|GABd egge|dG~G2 eGdG|FGAF G2:|
Bc|dg~g2 edBA|GEDE GABd|ea~a2 aged|BABd egge|
dg~g2 agbg|aged egge|dG~G2 eGdG|FGAF G2:|

